X:1
T:Caballero, 77.77 D
T:Caballero, 77.77 D
T:William Fiske Sherwin, 1881
T:Public Domain Courtesy of the Cyber Hymnal™
C:William Fiske Sherwin, 1881
Z:Public Domain
Z:Courtesy of the Cyber Hymnal™
%%score ( 1 2 ) ( 3 4 )
L:1/8
Q:1/4=112
M:4/4
K:C
V:1 treble 
V:2 treble 
V:3 bass 
V:4 bass 
V:1
 [EG]2 [CE]2 [EG]3 [EG] | [FA]2 [FA]2 [FA]4 | G2 [Gc]2 [FB]2 [Ec]2 | [Fd]2 [DB]2 [Ec]4 | %4
 [EG]2 [CE]2 [EG]3 [EG] | [FA]2 [FA]2 [FA]4 | G2 [Gc]2 [FB]2 [Ec]2 | [Fd]2 [DB]2 [Ec]4 | %8
 [Ge]2 [Ge]2 [Ge]3 [Fd] | [Ec]2 [FA]2 [EG]4 | [CE]2 [B,F]2 [CG]2 [Ec]2 | [FB]2 [Ec]2 [Gd]4 | %12
 [Ge]2 [Ge]2 [Ge]3 [Gd] | [Gc]2 [FA]2 [EG]4 | [CE]2 [EG]2 [FA]2 [EG]2 | [CE]2 [B,D]2 C4 |] %16
V:2
 x8 | x8 | G2 x6 | x8 | x8 | x8 | G2 x6 | x8 | x8 | x8 | x8 | x8 | x8 | x8 | x8 | x4 C4 |] %16
V:3
 [C,C]2 [C,G,]2 [C,C]3 [C,C] | [F,C]2 [F,C]2 [F,C]4 | [E,C]2 [E,C]2 [D,G,]2 [C,G,]2 | %3
 [F,A,]2 G,2 [C,G,]4 | [C,C]2 [C,G,]2 [C,C]3 [C,C] | [F,C]2 [F,C]2 [F,C]4 | %6
 [E,C]2 [E,C]2 [D,G,]2 [C,G,]2 | [F,A,]2 G,2 [C,G,]4 | C2 C2 C3 [G,B,] | [A,C]2 [F,C]2 [C,C]4 | %10
 [C,G,]2 [D,G,]2 [E,C]2 [C,C]2 | [G,D]2 [G,C]2 [G,B,]4 | [C,C]2 [C,C]2 [C,C]3 [D,B,] | %13
 [E,C]2 [F,C]2 [C,C]4 | [C,G,]2 [C,C]2 [F,C]2 [C,C]2 | G,2 [G,,F,]2 [C,E,]4 |] %16
V:4
 x8 | x8 | x8 | x2 G,2 x4 | x8 | x8 | x8 | x2 G,2 x4 | C2 C2 C3 x | x8 | x8 | x8 | x8 | x8 | x8 | %15
 G,2 x6 |] %16

